X:316
T:Nashville Skyline Rag
C:Ricky Skaggs
N:From "Holiday in Japan - The New South"
R:bluegrass
L:1/8
Q:1/4=223
M:4/4
K:C
"C"g4 g4 | "F"g2 ag ^d=d cG | "C"Ac d^d eg ag | "F"c'c2c' c'c2^d | "C"eg a2 c'2 a2 | 
"F"^g_b ge =ga ge | {d}"G"eg ^d=d cG Ac | "C"zE EE F2 ^F2 | Gc eg ^f^d cA | "F"FA cf ec AG | 
"C"^FA c^d =dc Bd | "F"cG EC [AD]^F ^D2 | "C"A^F ^D2 {E}F4 | "F"^FD ^DF zG, A,B, | 
"G"{E}G2 D^D =DC A,G, | "C"CE Gc z4 | "D"a^g =g^f d^c =cB | cB _BA ^F=F E^D | 
"G"DE GB DF ^GB | Ac eg _B^c eg | "E"^g2 b2 =g^g e^f | ^ge ^fg ef g2 | "A"g2 ^de g2 {d}eA | 
dc3 A4 | "C"C3/2C/ EC E2 {F}G2 | "F"zc2d eg3 | "C"zc'3 _b2 c2 | "F"a2 g2 ag eg | 
"C"e^d cd eg ag | "F"c'g ^ga ga =ge | "G"g^d e2 [a4d4] | "C"[a2^d2] [a6d6] | 


